!!!SOCIAL_FUNCTION:	initiation songs of the first and second degrees
!!!PDT:	1909
!!!OTL: No_10_Escorting_the_Candidate.krn
!!!REG: Great_Lakes
!!!LANG: Non-Tone
!!!LING_GROUP: Algonquin
**kern	**kern
*clefF4	*clefF4
*k[b-e-a-d-]	*k[b-e-a-d-]
*M3/4	*M3/4
4.r	8e-\L
.	8.e-\
.	16e-\Jk
=1	=1
8GG/L	4.e-\
8GG/J	.
8GG/L	.
8GG/J	8e-\
8GG/L	8.e-\L
8GG/J	.
.	16e-\Jk
=2	=2
2.r	4e-\
.	(8c\L
.	8B-\J)
.	4B-\
=3	=3
2.r	4.B-\
.	8B-\
.	4B-\
=4	=4
2.r	4B-\
.	4.B-\
.	8d-\
=5	=5
2.r	4.d-\
.	8d-\
.	8.d-\L
.	16e-\Jk
=6	=6
2.r	8.e-\L
.	16e-\Jk
.	4d-\
.	8d-\L
.	8d-\J
=7	=7
2.r	4.B-\
.	8B-\
.	4B-\
=8	=8
2.r	4B-\
.	4.B-\
.	8B-\
=9	=9
2.r	4.A-\
.	8A-\
.	8.A-\L
.	16B-\Jk
=10||	=10||
*M2/4	*M2/4
2r	6B-\
.	6B-\
.	6B-\
=11||	=11||
*M3/4	*M3/4
2.r	4.A-\
.	8A-\
.	8.A-\L
.	16A-\Jk
=12	=12
2.r	4.A-\
.	8A-\
.	8.A-\L
.	16A-\Jk
=13||	=13||
*M2/4	*M2/4
2r	6A-\
.	6F\
.	6E-\
=14||	=14||
*M3/4	*M3/4
2.r	4.E-\
.	8E-\
.	8.E-\L
.	16E-\Jk
=15	=15
2.r	4.E-\
.	8E-\
.	8.E-\L
.	16E-\Jk
=16	=16
2.r	6E-\
.	6BB-/
.	6AA-/
.	4AA-/
==	==
*-	*-
